X:22
T:Hungarian Minuet,The. JClw.22
M:6/8
L:1/8
Q:3/8=80
S:J.Clews MS,Stoke-upon-Tern,Shrops.1832
A:N. Shropshire
Z:Neil Brookes 2006
K:G
G2GGGG|A2gd BG|c2B2A2|B2gd BG|c2B2A2|BG dB g2|!
edcBAG|d2D2g2|ec A2g2|fg af ed|edA2g2|fe/d/ gf/e/ ag/f/|ba/g/ f2e2|d6||
d2dddd|d2gd bd|c2cccc|c6|B2c2d2|e2f2g2|edcBAG|!
{f}A2D4|G2GGGG|A2gd BG|c2B2A2|GABc dg|ga/b/ B2A2|G6|]

